X:1
T:Caprice No. 18
T:Caprice No. 18
T:Op. 20
T:Luigi Legnani (1790 - 1877)
C:Luigi Legnani
%%score ( 1 2 3 )
L:1/8
Q:1/4=90
M:4/4
K:Ab
V:1 treble-8 nm="Classical Guitar" snm="Guit."
V:2 treble-8 
V:3 treble-8 
V:1
"^Maestoso"!f! c'4 a4 | f4 z3/2!p! c<d=B/ | c2 [Ac]2 [GB]2 [FA]2 | [=EG]4 z4 |!f! d'4 b2 g2 | %5
 =e4 z3/2!p! c<d=B/ | c2 [Bc]2 [Ac]2 [Gc]2 |"^I" z4 z (!>!a=e)f | z4 z (!>!a=e)f | %9
"^III" z4 z (!>!b^f)g | z4 z (!>!bg)=e | c2 z2 z (!>!g=e)d | c2 z2 z (!>!dc)B | %13
 z [FA][FA][FA] [FA][FA][FA][FA] |"^I" c2 z2 e2 a2 | d2 z2 z a_gf | e2 e2 e2 e2 | f2 d2 d2 z2 | %18
 c2 z2 e2 a2 | d2 z2 z fff | f2 =d2 z fff | f2 _d2 z fff | f=dfd fdfd | c2 !>![cc']3 (d'b)(g | %24
 =e)dBG z4 | z4 z (!>!a=e)f | z4 z (!>!a=e)f | z4 z (!>!b^f)g | z4 z (!>!bg)=e | %29
 c2 z2 z (!>!g=e)d | c2 z2 z (!>!dc)B |!f!"^I" z [Acf] z [Acf] z [Bdf] z [A=df] | %32
 z [Acf][Acf][Acf] z [Gc=e][Gce][Gce] | z [Acf] z [Acf] z [Bdf] z !>![A=df] | %34
 z [Acf][Acf][Acf]!>(! z [Gc=e][Gce][Gce]!>)! |!p!"^I" [Acf]2 !>![Bd=e]4 [Ade][Gde] | %36
 [Acf]2 !>![Bd=e]4 [Ade][Gde] |"^I" [Acf]2 z2 [Acf]2 z2 | [Acf]2 z2 [Acf]2 z2 | [CFAcf]8 |] %40
V:2
 c4 A4 | F4 z4 | z2 A,2 =E,2 F,2 | C4 z4 | d4 B2 G2 | =E4 z4 | z2 G,2 F,2 =E,2 | [F,F]2 z2 z4 | %8
 [F,F]2 z2 z4 | [G,G]2 z2 z4 | [G,G]2 z2 z4 | C[=EG][EG][EG] [EG]2 z2 | C[=EG][EG][EG] [EG]2 z2 | %13
 D2 z2 z4 | D/A/_G/A/ G/A/G/A/ G/A/G/A/ G/A/G/A/ | D/A/F/A/ F/A/F/A/ F/A/F/A/ F/A/F/A/ | %16
 C/A/_G/A/ A,/A/G/A/ C/A/G/A/ A,/A/G/A/ | D/A/F/A/ A,/A/F/A/ D/A/F/A/ A,/A/F/A/ | %18
 D/A/_G/A/ G/A/G/A/ G/A/G/A/ G/A/G/A/ | D/A/F/A/ F/A/F/A/ C/A/F/A/ F/A/F/A/ | %20
 =B,/A/F/A/ F/A/F/A/ C/A/F/A/ F/A/F/A/ | D/A/F/A/ F/A/F/A/ C/A/F/A/ F/A/F/A/ | %22
 =B,/A/F/A/ B,/A/F/A/ B,/A/F/A/ B,/A/F/A/ | C2 !>!C2 z4 | z4 =EDB,G, | [F,F]2 z2 z4 | %26
 [F,F]2 z2 z4 | [G,G]2 z2 z4 | [G,G]2 z2 z4 | C[=EG][EG][EG] [EG]2 z2 | C[=EG][EG][EG] [EG]2 z2 | %31
 F, z A, z B, z !>!=B, z | C2 z2 C2 z2 | F, z A, z B, z !>!=B, z | C2 z2 C2 z2 | F,FF,F F,FF,F | %36
 F,FF,F F,FF,F | F,2 z2 F2 z2 | C2 z2 A,2 z2 | F,8 |] %40
V:3
 x8 | x8 | x8 | x8 | x8 | x8 | x8 | z [Ac][Ac][Ac] [Ac]2 z2 | z [Ac][Ac][Ac] [Ac]2 z2 | %9
 z [B=e][Be][Be] [Be]2 z2 | z [B=e][Be][Be] [Be]2 z2 | x8 | x8 | x8 | x8 | x8 | x8 | x8 | x8 | x8 | %20
 x8 | x8 | x8 | x8 | x8 | z [Ac][Ac][Ac] [Ac]2 z2 | z [Ac][Ac][Ac] [Ac]2 z2 | %27
 z [B=e][Be][Be] [Be]2 z2 | z [B=e][Be][Be] [Be]2 z2 | x8 | x8 | x8 | x8 | x8 | x8 | x8 | x8 | x8 | %38
 x8 | x8 |] %40

